X:1
T:Burton, LM
T:Burton, LM
T:Isaac Baker Woodbury (1819-1858)
T:Public Domain Courtesy of the Cyber Hymnal™
C:Isaac Baker Woodbury (1819-1858)
Z:Public Domain
Z:Courtesy of the Cyber Hymnal™
%%score 1 ( 2 3 )
L:1/8
Q:1/4=125
M:4/4
K:C
V:1 treble 
V:2 bass 
V:3 bass 
V:1
 [EG]4 | [Ec]2 [Ec]2 [Ec]2 [Ec]2 | [Ad]4 [GB]4 | [Gc]4 [Gd]4 | [Ge]2 [Ge]2 [Ge]2 [Ec]2 | %5
 [DB]4 [CA]4 | [B,G]4 [DF]4 | [CE]2 [CE]2 [CE]2 [B,D]2 | [CE]4 ([EG]3 [DF]) | [CE]4 [EG]4 | %10
 [Ec]2 [Ec]2 [Ec]2 [Ec]2 | [Fd]4 [DB]4 | [Ec]4 |] %13
V:2
 [C,C]4 | [C,G,]2 [C,G,]2 [C,C]2 [A,E]2 | [F,F]4 [G,D]4 | [C,E]4 [G,B,]4 | C2 C2 C2 [C,G,]2 | %5
 [D,G,]4 [D,^F,]4 | [G,,G,]4 [G,,G,]4 | G,2 G,2 G,2 [G,,G,]2 | G,4 (C3 G,) | [C,G,]4 [C,C]4 | %10
 [C,G,]2 [C,G,]2 [C,G,]2 A,2 | [F,A,]4 G,4 | [C,G,]4 |] %13
V:3
 x4 | x8 | x8 | x8 | C2 C2 C2 x2 | x8 | x8 | C,6 x2 | C,8 | x8 | x6 A,2 | x4 G,4 | x4 |] %13

